X: 385
T: The Sixpence
M:C
L:1/8
B:O'Neill's 385
N:"Moderate."
N:H is a fermata over the double bar.
Z:Transcribed by Chris Falt, cfalt@trytel.com
K:G
(Bd)|(ef)ed B2(AB)|d2d2 E2(GA)|B2dB (Ac)BA|G4-G2Hx||
(GA)|B3d g2(fg)|(ag)fg e2dc|Bdef g3f|e4 "D.C."d2||


